X: 299
T: The Welch Reel
%R: strathspey
Z: 2014 John Chambers <jc:trillian.mit.edu>
B: Preston "Twenty four Country Dances for the Year 1796" p.130 #1
F: http://www.vwml.org/browse/browse-collections-dance-tune-books/browse-prestons1796# 2014-8-10
M: C|
L: 1/8
K: Bb
%%slurgraces yes
%%graceslurs yes
D |\
B,<F {DE}F>D F>B, {DE}F>D | CcAF GC2F |\
[1 B,<F {DE}F>D F>B, {DE}F>D | FGBc dB2 :|
[2 B,<F {DE}F>D F>B, F>G | Ffec dB2 |: f |\
B<fd>f B>fdB | c<ge>g c>gec |\
B<fd>f B<fd>B |
FB eg fB2f |\
B<fd>f B<fd>B | c<ge>g c<ge>c |\
g>bf>d e>cd>B | GBFB dB2 |]
% - - - - - - - - - - - - - - - - - - - - - - - - -
%%begintext align
%% Follow your Partner round the 2d Cu: into the 3d Cu.s
%% place .| bach [sic] again :| lead down the middle up again :|.
%% Right & left :|:
%%endtext
% - - - - - - - - - - - - - - - - - - - - - - - - -

%%sep 1 1 500
%%sep 1 1 500
